icon-themes/breeze_svg/cmd/sc_bezier_unfilled.svg

<svg viewBox="0 0 16 16" xmlns="http://www.w3.org/2000/svg">/&gt;<path d="m3.5 2c-.8284271 0-1.5.6715729-1.5 1.5s.6715729 1.5 1.5 1.5c.6558381 0 1.2024102-.413588 1.40625-1h4.53125c-3.7964329 1.7341551-6.4375 5.5535887-6.4375 10h1c0-5.5228468 4.4771523-10 10-10v-1h-9.09375c-.2038398-.586412-.7504119-1-1.40625-1zm0 1c.2761424 0 .5.2238576.5.5s-.2238576.5-.5.5-.5-.2238576-.5-.5.2238576-.5.5-.5z" fill="#4d4d4d"/></svg>

<svg xmlns="http://www.w3.org/2000/svg" viewBox="0 0 16 16">
     />
 <path 
     style="fill:#4d4d4d" 
     d="M 3.5 2 C 2.6715729 2 2 2.6715729 2 3.5 C 2 4.3284271 2.6715729 5 3.5 5 C 4.1558381 5 4.7024102 4.586412 4.90625 4 L 9.4375 4 C 5.6410671 5.7341551 3 9.5535887 3 14 L 4 14 C 4 8.4771532 8.4771523 4 14 4 L 14 3 L 4.90625 3 C 4.7024102 2.413588 4.1558381 2 3.5 2 z M 3.5 3 C 3.7761424 3 4 3.2238576 4 3.5 C 4 3.7761424 3.7761424 4 3.5 4 C 3.2238576 4 3 3.7761424 3 3.5 C 3 3.2238576 3.2238576 3 3.5 3 z "
     />
 </svg>
